icons/align-right.svg

<svg xmlns="http://www.w3.org/2000/svg" viewBox="0 0 24 24">
    <g>
        <path fill="none" d="M0 0h24v24H0z"/>
        <path d="M3 4h18v2H3V4zm4 15h14v2H7v-2zm-4-5h18v2H3v-2zm4-5h14v2H7V9z"/>
    </g>
</svg>

<svg viewBox="0 0 24 24" fill="currentColor" xmlns="http://www.w3.org/2000/svg">
    <path d="M3 4H21V6H3V4ZM7 19H21V21H7V19ZM3 14H21V16H3V14ZM7 9H21V11H7V9Z"/>
</svg>
